svgs/sharp-regular/toothbrush.svg

<svg xmlns="http://www.w3.org/2000/svg" viewBox="0 0 576 512"><!--! Font Awesome Pro 6.6.0 by @fontawesome - https://fontawesome.com License - https://fontawesome.com/license (Commercial License) Copyright 2024 Fonticons, Inc. --><path d="M48 160c0-8.8 7.2-16 16-16l224 0c16.6 0 33.4-3.7 48.3-13.4c15-9.8 24.3-23.1 29.8-35.8c1-2.2 1.8-4.5 2.6-6.7c4.9 2.1 9.4 4.5 13.2 7.2c12 8.3 18 18.5 18 32.8c0 26.5-21.5 48-48 48L64 176l-16 0 0-16zM376 39.5c-15.4-5-31.9-7.5-48-7.5c0 30.8-2.3 64-40 64L64 96C28.7 96 0 124.7 0 160l0 16 0 48 48 0 16 0 288 0c53 0 96-43 96-96c0-46.4-32.5-75.7-72-88.5zM80 280l0-24-48 0 0 24 0 152-8 0L0 432l0 48 24 0 32 0 80 0 80 0 80 0 80 0 176 0 24 0 0-48-24 0-152 0 0-152 0-24-48 0 0 24 0 152-32 0 0-152 0-24-48 0 0 24 0 152-32 0 0-152 0-24-48 0 0 24 0 152-32 0 0-152 0-24-48 0 0 24 0 152-32 0 0-152z"/></svg>

<svg xmlns="http://www.w3.org/2000/svg" viewBox="0 0 576 512"><!--! Font Awesome Pro 6.4.0 by @fontawesome - https://fontawesome.com License - https://fontawesome.com/license (Commercial License) Copyright 2023 Fonticons, Inc. --><path d="M48 160c0-8.8 7.2-16 16-16H288c16.6 0 33.4-3.7 48.3-13.4c15-9.8 24.3-23.1 29.8-35.8c1-2.2 1.8-4.5 2.6-6.7c4.9 2.1 9.4 4.5 13.2 7.2c12 8.3 18 18.5 18 32.8c0 26.5-21.5 48-48 48H64 48V160zM376 39.5c-15.4-5-31.9-7.5-48-7.5c0 30.8-2.3 64-40 64H64C28.7 96 0 124.7 0 160v16 48H48 64 352c53 0 96-43 96-96c0-46.4-32.5-75.7-72-88.5zM80 280V256H32v24V432H24 0v48H24 56h80 80 80 80H552h24V432H552 400V280 256H352v24V432H320V280 256H272v24V432H240V280 256H192v24V432H160V280 256H112v24V432H80V280z"/></svg>
